X:1
T:Title
%%score { ( 1 3 ) | ( 2 4 ) }
L:1/8
Q:1/4=90
M:6/8
K:Eb
V:1 treble nm="Grand Piano"
V:3 treble 
V:2 bass 
V:4 bass 
V:1
 GGG G_G=G | A[FA][EA] [DA]3 | [FA][=EG][FA] [Ac][Bd][DAc] | [EGB]6 | GGG G_G=G | A[FA][EA] [DA]3 | %6
w: Mrs.~C.~H.~Morris * * * * *||||||
 [E=A][EG][EF] [Ge][Fd][Ec] | B3- [DAB]3 | B-[GB-][GB-] [GB]GE | c2 c c3 | .c6 | .d3 d3 | %12
w: ||||||
 [Ge]dc B2 G | [CEF][Ec][Ec] [Ed]2 [Ec] | [EB][EB][EB] [Dc][DB]D | E6 |] %16
w: ||||
V:2
 [E,B,E][E,B,E][E,B,E] [E,B,E][E,=A,E][E,B,E] | [F,B,D][D,B,][C,B,] [B,,B,]3 | %2
 [B,,B,][B,,B,][B,,B,] [B,,B,][B,,B,]B,, | E,6 | [E,B,E][E,B,E][E,B,E] [E,B,E][E,=A,E][E,B,E] | %5
 [F,B,D][D,B,][C,B,] [B,,B,]3 | [C,F,][C,B,][C,=A,] [F,A,][F,A,][F,A,] | B,,3 B,,3 | %8
 [E,E][E,E][E,E] [E,E][E,B,E][G,B,] | [A,E]2 [A,E] [A,E]3 | %10
 [F,=A,F][F,A,][F,A,] [F,E][F,CF][F,A,] | [B,,B,]2 [B,,B,] [B,,B,]3 | %12
 [E,B,][E,B,E][E,A,E] [E,G,E]2 [E,B,E] | A,,[A,,A,][A,,A,] [=A,,_G,]2 [A,,G,] | %14
 [B,,G,][B,,G,][B,,G,] [B,,A,][B,,A,][B,,A,B,] | [G,B,]2 A, G,3 |] %16
V:3
 x6 | x6 | x6 | x6 | x6 | x6 | x6 | [B,D]3 z3 | .G3 z3 | x6 | z FF FAF | FB[Ad] G2 A | x6 | x6 | %14
 x6 | z2 C B,3 |] %16
V:4
 x6 | x6 | x6 | x6 | x6 | x6 | x6 | x6 | x6 | x6 | x6 | x6 | x6 | x6 | x6 | E,6 |] %16

